X:5962
T:Gan Ainm
R:jig
S:Natalie McMaster
H:
N:
D:Solo Album #1
Z:Adrian Scahill
M:6/8
L:1/8
K:C
EFE CEG|FEF Ddc|BAB a2^f|g^fa gec|\
EFE CEG|FEF Ddc|BAB a2B|c3 c3:||\
G,CE Gce|g^fg e3|cBc E2G|F3 (3FGF E|\
1 DEF d2e|fef A2c|BAB a2^f|g3 g3:|2 DEF d2e|fef a2c'|bag fed|c3 c3:||


